X:1
T:Gentle Shepherd, Save Me Now
T:Gentle Shepherd, Save Me Now
T:William James Kirkpatrick
T:Frances Jane (Fanny) Crosby, 1886
T:Public Domain Courtesy of the Cyber Hymnal™
C:William James Kirkpatrick
Z:Public Domain
Z:Courtesy of the Cyber Hymnal™
%%score ( 1 2 ) 3
L:1/8
Q:1/4=93
M:2/4
K:F
V:1 treble 
V:2 treble 
V:3 bass 
V:1
 [FA]3 [FA] | [FB][FA] [CG][CF] | [FA] [Fc]3 | [Ec]3 [Ed] | [Ec][EG] [Ec][EB] | [FA]4 | %6
w: 1.~Far a-|way my steps have|wan- dered,|On the|rug- ged mount- ain’s|brow;|
w: 2.~Thou hast|borne my weight of|sor- row,|At Thy|feet I hum- bly|bow;|
w: 3.~Though Thy|love I long have|slight- ed,|Though un-|grate- ful I have|been,|
w: 4.~Though Thy|love I long have|slight- ed,|O’er my|wast- ed years I|weep;|
 [FA]3 [FA] | [FB][FA] [CG][CF] | [FA] [Fc]3 | [Fd]3 [Fd] | [Fc] [FA]3 | [EG]3 [CF] | [CF]4 || %13
w: But to|Thee my heart is|cry- ing,|Gen- tle|Shep- herd,|save me|now!|
w: And my|heart with Thee is|plead- ing,|Gen- tle|Shep- herd,|save me|now!|
w: To Thy|fold my faith has|brought me;|Let my|wea- ry|soul come|in.|
w: In Thy|bless- èd arms of|mer- cy|Shield and|save Thy|wan- dering|sheep.|
"^Refrain" [EG]3 [FA] | [GB]4 | [Gc]3 [GB] | [FA]4 | F3 F | FF [EB][FA] | [EG]4 | [FA]3 [FA] | %21
w: ||||||||
w: ||||||||
w: ||||||||
w: ||||||||
 [FB][FA] [CG][CF] | [FA] [Fc]3 | [Fd]3 [Fd] | [Fc] [FA]3 | [EG]3 [CF] | [CF]4 |] %27
w: ||||||
w: ||||||
w: ||||||
w: ||||||
V:2
 x4 | x4 | x4 | x4 | x4 | x4 | x4 | x4 | x4 | x4 | x4 | x4 | x4 || x4 | x4 | x4 | x4 | F3 F | %18
 FF x2 | x4 | x4 | x4 | x4 | x4 | x4 | x4 | x4 |] %27
V:3
 [F,C]3 [F,C] | [F,D][F,C] [F,B,][F,A,] | [F,C] [F,A,]3 | [C,G,]3 [C,G,] | %4
w: ~ ~|~ ~ ~ ~|~ ~|~ ~|
 [C,G,][C,G,] [C,G,][C,C] | [F,C]4 | [F,C]3 [F,C] | [F,D][F,C] [F,B,][F,A,] | [F,C] [F,A,]3 | %9
w: ~ ~ ~ ~|~|~ ~|~ ~ ~ ~|~ ~|
 [B,,B,]3 [D,B,] | [F,A,] [F,C]3 | [C,B,]3 [F,,F,A,] | [F,,F,A,]4 || [C,C]3 [C,C] | [C,C]4 | %15
w: ~ ~|~ ~|~ ~|~|Save me|now!|
 [E,G,]3 [E,C] | [F,C]4 | [A,C]3 [A,C] | [B,D][A,C] [G,C][F,C] | [C,C]4 | [F,C]3 [F,C] | %21
w: save me|now!|Gen- tle|Shep- herd, save me|now!|Un- to|
 [F,D][F,C] [F,B,][F,A,] | [F,C] [F,A,]3 | [B,,B,]3 [D,B,] | [F,A,] [F,C]3 | [C,B,]3 [F,,F,A,] | %26
w: Thee my heart is|cry- ing,|Gen- tle|Shep- herd,|save me|
 [F,,F,A,]4 |] %27
w: now!|

